svg/fluentui-system-icons/ic_fluent_add_circle_20_regular.svg

<svg width="20" height="20" viewBox="0 0 20 20" fill="none" xmlns="http://www.w3.org/2000/svg">
<path d="M6 10C6 9.72386 6.22386 9.5 6.5 9.5H9.5V6.5C9.5 6.22386 9.72386 6 10 6C10.2761 6 10.5 6.22386 10.5 6.5V9.5H13.5C13.7761 9.5 14 9.72386 14 10C14 10.2761 13.7761 10.5 13.5 10.5H10.5V13.5C10.5 13.7761 10.2761 14 10 14C9.72386 14 9.5 13.7761 9.5 13.5V10.5H6.5C6.22386 10.5 6 10.2761 6 10ZM10 18C14.4183 18 18 14.4183 18 10C18 5.58172 14.4183 2 10 2C5.58172 2 2 5.58172 2 10C2 14.4183 5.58172 18 10 18ZM10 17C6.13401 17 3 13.866 3 10C3 6.13401 6.13401 3 10 3C13.866 3 17 6.13401 17 10C17 13.866 13.866 17 10 17Z" fill="#212121"/>
</svg>

<svg xmlns="http://www.w3.org/2000/svg" width="20" height="20"><path d="M6 10a.5.5 0 0 1 .5-.5h3v-3a.5.5 0 0 1 1 0v3h3a.5.5 0 0 1 0 1h-3v3a.5.5 0 0 1-1 0v-3h-3A.5.5 0 0 1 6 10Zm4 8a8 8 0 1 0 0-16 8 8 0 0 0 0 16Zm0-1a7 7 0 1 1 0-14 7 7 0 0 1 0 14Z"/></svg>
